X:1
T: the Farmer's Daughter
M:4/4
L:1/8
C:Scottish Traditional
S:Wendy Galovich <wendy@scottishmusician.com> scots-l 2000-10-10
R:Reel
K:D
B|d2 de f2 ef|dedB d/d/d AB|d2 de f2 ea|cAeA cAAB|
d2 de f2 ef|dedB d/d/d dg|fgag f2 ef|A/A/A eA cAA:|
c|d2 f2 B/B/B fB|cBfB cBBc|d2 eA A/A/A eA|cAeA cAAc|
d2 f2 B/B/B fB|cBfB cBBc|d2 ag f2 ef|A/A/A eA cAA:|
